X:1
T:Piano Sonata No. 21
T:Allegro con brio
T:Piano Sonata No. 21
T:Ludwig van Beethoven
T:Movement I
T:Creative Commons copyright waiver (CC0 1.0 Universal)
T:Creative Commons copyright waiver (CC0 1.0 Universal)
T:Creative Commons copyright waiver (CC0 1.0 Universal)
T:Creative Commons copyright waiver (CC0 1.0 Universal)
T:Creative Commons copyright waiver (CC0 1.0 Universal)
T:Creative Commons copyright waiver (CC0 1.0 Universal)
T:Creative Commons copyright waiver (CC0 1.0 Universal)
T:Creative Commons copyright waiver (CC0 1.0 Universal)
T:Creative Commons copyright waiver (CC0 1.0 Universal)
T:Creative Commons copyright waiver (CC0 1.0 Universal)
T:Creative Commons copyright waiver (CC0 1.0 Universal)
T:Creative Commons copyright waiver (CC0 1.0 Universal)
T:Creative Commons copyright waiver (CC0 1.0 Universal)
T:Creative Commons copyright waiver (CC0 1.0 Universal)
C:Ludwig van Beethoven
Z:Creative Commons copyright waiver (CC0 1.0 Universal)
%%score { 1 | ( 2 5 6 ) | ( 3 4 ) }
L:1/8
Q:1/4=160
M:4/4
K:C
V:1 treble nm="Piano" snm="Pno."
V:2 treble 
V:5 treble 
V:6 treble 
V:3 bass 
V:4 bass 
V:1
"^Allegro con brio" z8 | z8 |: z8 | z8 | z8 | z8 | z8 | z8 | z8 | z8 | z8 | z8 | z8 | z8 | z8 | %15
 z8 | z8 | z8 | z8 | z8 | z8 | z8 | z8 | z8 | z8 | z8 | z8 | z8 | z8 | z8 | z8 | z8 | z8 | z8 | %34
 z8 | z8 | z8 | z8 | z8 | z8 | z8 | z8 | z8 | z8 | z8 | z8 | z8 | z8 | z8 | z8 | z8 | z8 | z8 | %53
 z8 | z8 | z8 | z8 | z8 | z8 | z8 | z8 | z8 | z8 | z8 | z8 | z8 | z8 | z8 | z8 | z8 | z8 | z8 | %72
 z8 | z8 | z8 | z8 | z8 | z8 | z8 | z8 | z8 | z8 | z8 | z8 | z8 |1 z8 | z8 :|2 z8 | z8 || z8 | z8 | %91
 z8 | z8 | z8 | z8 | z8 | z8 | z8 | z8 | z8 | z8 | z8 | z8 | z8 | z8 | z8 | z8 | z8 | z8 | z8 | %110
 z8 | z8 | z8 | z8 | z8 | z8 | z8 | z8 | z8 | z8 | z8 | z8 | z8 | z8 | z8 | z8 | z8 | z8 | z8 | %129
 z8 | z8 | z8 | z8 | z8 | z8 | z8 | z8 | z8 | z8 | z8 | z8 | z8 | z8 | z8 | z8 | z8 | z8 | z8 | %148
 z8 | z8 | z8 | z8 | z8 | z8 | z8 | z8 | z8 | z8 | z8 | z8 | z8 | z8 | z8 | z8 | z8 | z8 | z8 | %167
 z8 | z8 | z8 | z8 | z8 | z8 | z8 | z8 | z8 | z8 | z8 | z8 | z8 | z8 | z8 | z8 | z8 | z8 | z8 | %186
 z8 | z8 | z8 | z8 | z8 | z8 | z8 | z8 | z8 | z8 | z8 | z8 | z8 | z8 | z8 | z8 | z8 | z8 | z8 | %205
 z8 | z8 | z8 | z8 | z8 | z8 | z8 | z8 | z8 | z8 | z8 | z8 | z8 | z8 | z8 | z8 | z8 | z8 | z8 | %224
 z8 | z8 | z8 | z8 | z8 | z8 | z8 | z8 | z8 | z8 | z8 | z8 | z8 | z8 | z8 | z8 | z8 | z8 | z8 | %243
 z8 | z8 | z8 | z8 | z8 | z8 | z8 | z8 | z8 | z8 | z8 | z8 | z8 | z8 | z8 | z8 | z8 | z8 | z8 | %262
 z8 | z8 | z8 | z8 | z8 | z8 | z8 | z8 | z8 | z8 | z8 | z8 | z8 | z8 | z8 | z8 | z8 | z8 | z8 | %281
 z8 | z8 | z8 | z8 | z8 | z8 | z8 | z8 | z8 | z8 | z8 | z8 | z8 | %294
 z8[Q:1/4=140][Q:1/4=120][Q:1/4=100] |[Q:1/4=80] z8[Q:1/4=60][Q:1/4=40][Q:1/4=20] |[Q:1/4=160] z8 | %297
 z8 | z8 | z8 | z8 | z8 | z8 | z8 |] %304
V:2
!pp!"_cresc." z[I:staff +1] [C,E,][C,E,][C,E,] [C,E,][C,E,][C,E,][C,E,] | %1
 [C,E,][C,E,][C,E,][C,E,] [C,E,][C,E,][D,^F,][D,F,] |: %2
 ([D,G,]3 B,/A,/ !wedge!G,)[I:staff -1] z z2 |{/^c'} (d'2- d'/=c'/b/a/ !wedge!g2) z2 | %4
!pp!"_cresc."[I:staff +1] [_B,,D,][B,,D,][B,,D,][B,,D,] [B,,D,][B,,D,][B,,D,][B,,D,] | %5
 [_B,,D,][B,,D,][B,,D,][B,,D,] [B,,D,][B,,D,][C,E,][C,E,] | %6
 ([C,F,]3 A,/G,/ !wedge!F,)[I:staff -1] z z2 |{/=b} (c'2- c'/_b/_a/g/ !wedge!f2) z2 | %8
"_cresc."{/e'} f'6 f'/_e'/d'/c'/ | =b/c'/d'/_e'/ f'/e'/d'/c'/ b/c'/d'/e'/ f'/e'/d'/c'/ | %10
!f! b/c'/d'/_e'/ f'/e'/d'/c'/ b/_a/g/f/ _e/d/c/B/ |"_decresc." c z G z _E z C z |!p! !fermata!G,8 | %13
!pp!"_cresc." =E/C/E/C/ E/C/E/C/ E/C/E/C/ E/C/E/C/ | E/C/E/C/ E/C/E/C/ E/C/E/C/ ^F/D/F/D/ | %15
 (G3 B/A/ !wedge!G) z z2 |{/^c'} (d'2- d'/=c'/b/a/ !wedge!g2) z2 | %17
!pp! =F/D/F/D/ F/D/F/D/ F/D/F/D/ F/D/F/D/ | F/D/F/D/ F/D/F/D/ F/D/F/D/ ^G/E/G/E/ | %19
 (A3 c/B/ !wedge!A) z z2 |"_cresc."{/^d'} (e'2- e'/=d'/c'/b/ !wedge!a2) z2 | %21
{/^d'} (e'2- e'/=d'/c'/b/ !wedge!^a2) z2 |!p! b2- b/=a/g/^f/ g/f/e/^d/ e/g/f/e/ | %23
 ^d/^c/B/^A/ B/c/=d/^d/ e/d/e/^f/ g/^g/=a/^a/ | b/^a/b/a/ b/=a/g/^f/ g/f/e/^d/ e/g/f/e/ | %25
 ^d/^c/B/^A/ B/c/=d/^d/ e/d/e/^f/ g/^g/=a/^a/ |"_cresc." b/^f/^d/B/ ^A/B/e/g/ b/f/d/B/ A/B/e/g/ | %27
!f! b/^f/^d/B/ b/f/d/B/ b/f/d/B/ b/f/d/B/ | b/^f/^d/B/ f/d/B/^F/ d/B/F/^D/ B/F/D/B,/ | %29
 ^F/^D/B,/[I:staff +1]^F,/[I:staff -1] D/B,/[I:staff +1]F,/^D,/ B,/F,/D,/B,,/[I:staff -1] z2 | %30
 z4"^decresc." !wedge!B!wedge!B,!wedge!^c!wedge!^C | %31
 !wedge!^d!wedge!^D z2 !wedge!d!wedge!D!wedge!e!wedge!E | %32
!p! !wedge!^f!wedge!^F!wedge!^g!wedge!^G !wedge!a!wedge!A!wedge!a!wedge!B | %33
 !wedge!a!wedge!^c!wedge!a!wedge!^d !wedge!a!wedge!e!wedge!a!wedge!^f | %34
"_dolce e molto legato" (^g4 ^f2 e2 | ^d4 ^c4) |"_cresc." (^d4 e2 ^f2 |!>(! [e^g]4 [^d^f]4!>)! | %38
!pp! [B,E^G]4 [A,^D^F]2 [^G,^CE]2 | [^B,^D]4 [A,^C]4 |"_cresc." =B,4 ^C2 ^D2) | %41
!p! (3E^F^G (3AB^c (3=d^de (3^e^f^^f |"_dolce" (3(^g^^fg (3afg (3Ag^f (3^Gfe | %43
 (3^F^B^d (3eBd (3EA^c (3dAc) |"_cresc." (3(A^^c^d (3ecd (3B^fe (3^c^ge | %45
!>(! (3^g^^fg (3bag (3^fe=d (3^cBA!>)! |!p! (3^G^^FG (3AFG (3A,G^F (3^G,FE | %47
[I:staff +1] (3^F,[I:staff -1]^B,^D (3e^B^d[I:staff +1] (3E,[I:staff -1]A,^C (3D[I:staff +1]A,[I:staff -1]C | %48
[I:staff +1] (3E,^G,B, (3^F,A,B, (3F,A,^C (3F,A,^D |[I:staff -1] (3EB,^G, (3B,E^G (3^F^DB, (3DFA | %50
 (3^GEB, (3EGB (3A^F^D (3^dAF) | [^Ge]2 B4 B2- | B2 B4 B2 | (3eB^G (3Be^g (3^f^dB (3dfa | %54
 (3^geB (3egb (3a^f^d (3^d'bf |"_decresc." (3e'b^g (3bge (3a^f^d (3^d'bf | %56
 (3e'b^g (3bge (3a^f^d (3^d'bf |!pp!"_cresc." e'/b/^g/e/ a/^f/^d'/b/ e'/b/g/e/ a/f/d'/b/ | %58
 e'/b/^d'/b/ e'/b/d'/b/ e'/b/d'/b/ e'/b/d'/b/ |!f! e'/b/=d'/b/ d'/b/d'/b/ d'/b/d'/b/ d'/b/d'/b/ | %60
 d'^c'/b/ a/^g/^f/e/ d/^c/B/A/ ^G/^F/E/D/ |!ff! ^C/^D/E/D/ E/^G/A/G/ A/^B/^c/B/ c/^d/e/d/ | %62
 e/^g/a/g/ a/^b/^c'/b/ c'/^d'/e'/d'/ e'/d'/c'/b/ | %63
 ^c'/^b/c'/^d'/ e'/d'/c'/b/ c'/b/c'/d'/ e'/d'/c'/b/ | %64
 ^c'/^b/c'/^d'/ e'/d'/c'/b/ c'/b/c'/d'/ e'/d'/e'/c'/ | %65
 !wedge![=B=b]!wedge![Bb]!wedge![^G^g]!wedge![Ee] !wedge![ee']!wedge![ee']!wedge![Bb]!wedge![Gg] | %66
 !wedge![Bb]!wedge![Bb]!wedge![^G^g]!wedge![Ee] !wedge![ee']!wedge![ee']!wedge![Bb]!wedge![Gg] | %67
 z/!p! ^g/b/g/ b/g/b/g/ b/g/b/g/ b/g/b/g/ | b/^g/b/g/ b/g/b/g/ b/g/b/g/ b/g/b/g/ | %69
"_decresc." z/ a/b/a/ =c'/a/b/a/ c'/a/b/a/ c'/a/b/a/ | %70
!pp! c'/a/b/a/ c'/a/b/a/ c'/a/b/a/ c'/a/b/a/ | ^c'/a/b/a/ c'/a/b/a/ c'/a/b/a/ c'/a/b/a/ | %72
 ^f'/[ab]/f'/[ab]/ f'/[ab]/f'/[ab]/ f'/[ab]/f'/[ab]/ f'/[ab]/f'/[ab]/ | [^gbf']6 e'/=d'/=c'/b/ | %74
 c'/b/a/^g/ a/b/c'/d'/ e'/f'/e'/^d'/ e'/=d'/c'/b/ | c'/d'/c'/b/ a/^g/a/b/ (c'2 a^f | %76
 b2 =ge a2 ^f^d) | e6 e/=d/c/B/ | c/B/A/^G/ A/B/c/d/ e/f/e/^d/ e/=d/c/B/ | %79
 c/d/c/B/ A/^G/A/B/ (c2 A^F | B2 =GE A2 ^F^D) | !wedge!E2"_cresc." (ed c2 A=F |!p! B2 GE A2 ^F^D) | %83
 !wedge!E2"_cresc." (cB A2 =F=D |!p! G2 EC F2 DB,) |1 %85
!pp![I:staff +1] [E,C][C,E,][C,E,][C,E,] [C,E,][C,E,][C,E,][C,E,] | %86
 [C,E,][C,E,][C,E,][C,E,] [C,E,][C,E,][D,^F,][D,F,] :|2 %87
!p![I:staff -1] !wedge!C2"_cresc." (fe d2 _BG |!p! c2 AF _B2 GE) || %89
 !wedge!F2"_cresc." (FE D2[K:bass] _B,G, |!pp! C2 A,F, _B,2 G,E,) | %91
!pp! [A,,F,][F,,A,,][F,,A,,][F,,A,,] [F,,A,,][F,,A,,][F,,A,,][F,,A,,] | %92
 [F,,A,,][F,,A,,][F,,A,,][F,,A,,] [F,,A,,][F,,A,,][G,,=B,,][G,,B,,] | (C,3 E,/D,/ !wedge!C,) z z2 | %94
[K:treble]{/^f} g2- (g/=f/_e/d/ !wedge!c2) z2 | %95
[I:staff +1] (^F,3 A,/G,/ !wedge!F,)[I:staff -1] z z2 |{/d'} (_e'2- e'/d'/c'/_b/ !wedge!a2) z2 | %97
 (_B,D/C/ !wedge!B,2) (c'/_b/a/g/ !wedge!^f2) | (G_B/A/ !wedge!G2) (f/_e/d/c/ !wedge!B2) | %99
"_cresc." _B,D/C/ !wedge!B,2 (c'/_b/a/g/ !wedge!^f2) | %100
 (d/c/_B/A/ !wedge!G2)!f! (_a/g/=f/_e/ !wedge!d2) |!p! (_EG/F/ !wedge!E2) (f/_e/d/c/ !wedge!B2) | %102
 (C_E/D/ !wedge!C2) (_a/g/f/_e/ !wedge!d2) |"_cresc." (_EG/F/ !wedge!E2) (f/_e/d/c/ !wedge!B2) | %104
 (g/f/_e/d/ !wedge!c2)!f! (_d'/c'/_b/_a/ !wedge!g2) | %105
!pp! (_ac'/_b/ !wedge!a2) (_d'f'/_e'/ !wedge!d'2) | (_G_B/_A/ !wedge!G2) _c4 | %107
 (f=a/=g/ !wedge!f2) (_b_d'/c'/ !wedge!b2) | (_EG/F/ !wedge!F2) _A4 | %109
 (_df/_e/ !wedge!d2) (_g_b/_a/ !wedge!g2) | (C=E/=D/ !wedge!C2) c4 | (ce/d/ !wedge!c2) c'4 | %112
 (c'e'/d'/ !wedge!c')!wedge!c' !wedge!c'(c'f'=b) |!f! c'2 G4 G2 | (3(cGE (3Gce (3d=B_A (3Bdf | %115
 (3=e_d_B (3deg (3_be_d' (3edb | (3_d_Be (3BEd (3BEc (3BEc) | [F=Ac]2 c4 c2 | %118
 (3(fcA (3cfa (3g=e_d (3eg_b | (3a_g_e (3gac' (3ag_e' (3gec' | (3_eca (3eA_g (3eAf (3eAf) | %121
 [_B=df]2 F4 F2 | (3(_BFD (3FBd (3c=A_G (3Ac_e | (3d_c_A (3cdf (3_ad_c' (3dca | %124
 (3_c_Af (3AFd (3ADc (3AD_B | (3_g_e_B (3eg_b (3ge_e' (3eBb | (3_B_G_g (3G_Ee (3GEe (3GEe) | %127
 (3(^f=e^c (3ef^c' (3fee' (3ecc' | (3^c^F^f (3FEe (3FEe (3FEe) | (3(^fdB (3dfb (3fdd' (3dBb | %130
 (3B^F^f (3FDd (3FDd (3FDd) | (3(gdB (3dgb (3gdd' (3dBb | (3BGg (3G=F=f (3GDd (3GDd) | %133
 (3(c'g_e (3gc'_e' (3gee' (3ecc' | (3cGg (3G_E_e (3GEe (3GEe) | (3(f_e_A (3df_a (3fdA (3fdA) | %136
 (3(_ec=A (3ce=a (3ecA (3ecA) |!f! z2 (3=Bdf (3dBG!p! (3fBG | (3fdG (3_edG (3ecG (3dcA | %139
!f! z2 (3B,DG (3DB,G,!p! (3FB,G, | (3FDG, (3_EDG, (3ECG, (3DCA, | %141
 (3DB,G,"_decresc."[I:staff +1] (3CG,_E, (3B,G,D, (3A,E,C, | %142
 (3G,D,B,, (3^F,_E,A,, (3G,D,B,, (3F,E,A,, |!pp! [B,,D,G,]8- | %144
 [B,,D,G,]/D,/=E,/^F,/ A,/D,/E,/F,/ G,/D,/E,/F,/ G,/D,/E,/F,/ | G,8- | %146
 G,/^F,/G,/A,/ B,/F,/G,/A,/ B,/F,/G,/A,/ B,/F,/G,/A,/ | %147
"_cresc." B,[I:staff -1] z z[I:staff +1] (B,/C/ !wedge!D)[I:staff -1] z z (3(D/E/^F/ | %148
 !wedge!G) z z (G/A/ !wedge!B)(B/c/ !wedge!d)(3(d/e/^f/ | %149
"_cresc." !wedge!g) z z (3(D/E/^F/ !wedge!G) z z (G/A/ | %150
 !wedge!B) z z (B/c/ !wedge!d)(3(d/e/^f/ !wedge!g)(g/a/ | %151
 !wedge!b) z z (3(d/e/^f/ !wedge!g2) z (g/a/ | %152
"_cresc." !wedge!b2) z (g/a/ !wedge!b)(b/c'/ !wedge!d')(d'/e'/ | %153
!f! !wedge!=f'2) z (d'/e'/ !wedge!f'2) z (d'/e'/ | %154
 !wedge!f')(d'/e'/ !wedge!f')(d'/e'/ !wedge!f')(d'/e'/ !wedge!f')d'/e'/ | %155
 f'/e'/d'/c'/ b/c'/d'/e'/ f'/e'/d'/c'/ b/c'/d'/e'/ |!ff! f'e'/d'/ c'/b/a/g/ f/e/d/c/ B/A/G/F/ | %157
 E!pp!"_cresc."[I:staff +1] [C,E,][C,E,][C,E,] [C,E,][C,E,][C,E,][C,E,] | %158
 [C,E,][C,E,][C,E,][C,E,] [C,E,][C,E,][D,^F,][D,F,] | ([D,G,]3 B,/A,/ !wedge!G,)[I:staff -1] z z2 | %160
{/^c'} (d'2- d'/=c'/b/a/ !wedge!g2) z2 | %161
!pp![I:staff +1] [_B,,D,][B,,D,][B,,D,][B,,D,] [B,,D,][B,,D,][B,,D,][B,,D,] | %162
 [_B,,D,][B,,D,][B,,D,][B,,D,] [B,,D,][B,,D,][C,E,][C,E,] | %163
 ([C,F,]3 A,/G,/ !wedge!F,)[I:staff -1] z z2 |{/=b} (c'2- c'/_b/_a/g/ !wedge!f2) z2 | %165
"_cresc."{/e'} f'6 f'/_e'/d'/c'/ | =b/c'/d'/_e'/ f'/e'/d'/c'/ b/c'/d'/e'/ f'/e'/d'/c'/ | %167
!f! b/c'/d'/_e'/ f'/e'/d'/c'/ b/_a/g/f/ _e/d/c/B/ | c z"_decresc." G z _E z C z | !fermata!_A,8 | %170
!pp! _d z _A z F z _D z | !fermata!_B,8 |!pp! z/ G/_B/_e/ z/ G/B/e/ z/ G/B/e/ z/ G/B/e/ | %173
 z/ F/_A/_e/ z/ F/=B/d/ z/ _E/^F/d/ z/ E/=A/c/ | z/ D/G/c/ z/ D/G/c/ z/ D/G/c/ z/ D/=F/B/ | %175
!f! [=Ec]!pp!"_cresc." E/C/ E/C/E/C/ E/C/E/C/ E/C/E/C/ | E/C/E/C/ E/C/E/C/ E/C/E/C/ ^F/D/F/D/ | %177
 (G3 B/A/ !wedge!G) z z2 |{/^c'} (d'2- d'/=c'/b/a/ !wedge!g2) z2 | %179
!pp! F/D/F/D/ F/D/F/D/ F/D/F/D/ F/D/F/D/ | F/D/F/D/ F/D/F/D/ F/D/F/D/ ^G/D/G/D/ | %181
 (A3 c/B/ !wedge!A) z z2 |{/^d'} (e'2- e'/=d'/c'/b/ !wedge!a2) z2 | %183
"_cresc."{/b} (c'2- c'/b/a/^g/ !wedge!a2) z2 |{/b} c'2- c'/b/a/^g/ a/g/a/b/ c'/^c'/=d'/^d'/ | %185
!p! e'2- e'/=d'/=c'/b/ c'/b/a/^g/ a/c'/b/a/ | ^g/^f/e/^d/ e/f/=g/^g/ a/g/a/b/ c'/^c'/=d'/^d'/ | %187
 e'/^d'/e'/d'/ e'/=d'/=c'/b/ c'/b/a/^g/ a/c'/b/a/ | %188
 ^g/^f/e/^d/ e/f/=g/^g/ a/g/a/b/ c'/^c'/=d'/^d'/ | %189
"_cresc." e'/b/^g/e/ ^d/e/a/c'/ e'/b/g/e/ d/e/a/c'/ | %190
!f! e'/b/^g/e/ e'/c'/a/e/ e'/b/g/e/ e'/c'/a/e/ | e'/b/^g/e/ b/g/e/B/ g/e/B/^G/ e/B/G/E/ | %192
 B/^G/E/B,/ G/E/[I:staff +1]B,/^G,/ E/B,/G,/E,/[I:staff -1] z2 | %193
"_decresc." z4 !wedge!e!wedge!E!wedge!^f!wedge!^F | %194
 !wedge!^g!wedge!^G z2 !wedge!g!wedge!G!wedge!a!wedge!A | %195
!p! !wedge!b!wedge!B!wedge!^c'!wedge!^c !wedge!d'!wedge!d!wedge!d'!wedge!e | %196
 !wedge!d'!wedge!^f!wedge!d'!wedge!^g !wedge!d'!wedge!a!wedge!d'!wedge!b | %197
"_dolce" ([^cea^c']4 [Be^gb]2 [Ac^fa]2 | [^GB^e^g]4 [^FAd^f]4) | %199
"_cresc." [^Gd=e^g]4 [Aea]2 [B^fab]2 |!>(! [a^c']4 [^gb]4!>)! |!p! ([EA=c]4 [E=GB]2 [C=FA]2 | %202
 [CEG]4 [A,DF]4 |"_cresc." G4 A2 B2) |!p! (3cde (3fga (3_b=bc' (3^c'd'^d' | %205
"_dolce" (3(e'^d'e' (3f'd'e' (3be'=d' (3ad'c' | (3^g^ab (3c'ab (3fg=a (3bga) | %207
"_cresc." (3(f^ab (3c'ab (3=gd'c' (3=ae'd' |!>(! (3e'^d'e' (3g'f'e' (3=d'c'b (3agf!>)! | %209
!p! (3e^de (3fde (3Fe=d (3Edc | (3D^AB (3cAB (3C^G=A (3BGA |"_cresc." (3CE=G (3DFG (3DFA (3DFB) | %212
!f! (3[Ec][I:staff +1]G,E, (3G,CE (3DB,G, (3B,DF |[I:staff -1] (3ECG, (3CEG (3FDB, (3BFD | %214
 [Ec]2 G4 G2- | G2 G4 G2 | (3cGE (3Gce (3dBG (3Bdf | (3ecG (3ceg (3fdB (3bgd | %218
"_decresc." (3c'ge (3gec (3fdB (3bgd | (3c'ge (3gec (3fdB (3bgd | %220
!pp!"_cresc." c'/g/e/c/ f/d/b/g/ c'/g/e/c/ f/d/b/g/ | c'/g/b/g/ c'/g/b/g/ c'/g/b/g/ c'/g/b/g/ | %222
!f! c'/g/_b/g/ b/g/b/g/ b/g/b/g/ b/g/b/g/ | _ba/g/ f/e/d/c/ _B/A/G/F/ E/D/C/_B,/ | %224
!ff! A,/=B,/C/B,/ C/E/F/E/ F/^G/A/G/ A/=B/c/B/ | c/e/f/e/ f/^g/a/g/ a/b/c'/b/ c'/b/a/g/ | %226
 a/^g/a/b/ c'/b/a/g/ a/g/a/b/ c'/b/a/g/ | a/^g/a/b/ c'/b/a/g/ a/g/a/b/ c'/b/c'/a/ | %228
 !wedge![=G=g]!wedge![Gg]!wedge![Ee]!wedge![Cc] !wedge![cc']!wedge![cc']!wedge![Gg]!wedge![Ee] | %229
 !wedge![Gg]!wedge![Gg]!wedge![Ee]!wedge![Cc] !wedge![cc']!wedge![cc']!wedge![Gg]!wedge![Ee] | %230
 z/!p! c'/e'/c'/ g'/e'/g'/e'/ g'/e'/g'/e'/ g'/e'/g'/e'/ | %231
 g'/e'/g'/e'/ g'/e'/g'/e'/ g'/e'/g'/e'/ g'/e'/g'/e'/ | %232
"_decresc." z/ f'/g'/f'/ _a'/f'/g'/f'/ a'/f'/g'/f'/ a'/f'/g'/f'/ | %233
!pp! _a'/f'/g'/f'/ a'/f'/g'/f'/ a'/f'/g'/f'/ a'/f'/g'/f'/ | %234
"_cresc." =a'/f'/g'/f'/ a'/f'/g'/f'/ a'/f'/g'/f'/ a'/f'/g'/f'/ | %235
 a'[f'g'][f'g'][f'g'] [f'g'][f'g'][f'g'][f'g'] | c'6 c'/_b/_a/g/ | %237
 _a/g/f/e/ f/g/a/_b/ c'/_d'/c'/=b/ c'/_b/a/g/ | _a/_b/a/g/ f/e/f/g/ (a2 f_d | g2 _ec f2 =d=B) | %240
 c6 c/_B/=A/G/ | A/G/F/E/ F/G/A/_B/ c/d/c/=B/ c/_B/A/G/ | A/_B/A/G/ F/E/F/G/ (A2 FD | %243
 G2 EC F2 D=B,) | C2"_cresc." (cB A2 FD |!p! G2 EC F2 DB,) | C2"_cresc." (fe d2 _BG | %247
!p! c2 AF _B2 GE) | !wedge!F2"_cresc." (f_e _d2 _BG |!p! c2 _AF _B2 GE) | %250
 F!pp![I:staff +1] [_D,F,][D,F,][D,F,] [D,F,][D,F,][D,F,][D,F,] | %251
 [_D,F,][D,F,][D,F,][D,F,] [D,F,][D,F,][_E,G,][E,G,] | %252
 ([E,_A,]3 C/_B,/ !wedge!A,)[I:staff -1] z z2 |!f!{/=d'} (_e'2- e'/_d'/c'/_b/ !wedge!=a2) z2 | %254
!p![I:staff +1] (_B,3 _D/C/ !wedge!B,)[I:staff -1] z z2 | %255
!f!{/=e'} (f'2- f'/_e'/=d'/c'/ !wedge!=b2) z2 | (C_E/D/ !wedge!C) z (_a/g/f/_e/ !wedge!d2) | %257
 (=EG/F/ !wedge!E) z (c'/_b/_a/g/ !wedge!f2) | %258
!ff! (_e'/d'/c'/=b/ !wedge!c'2) (_e/d/c/=B/ !wedge!c2) | %259
 (_E/D/C/B,/ !wedge!C2) _e/d/c/B/ c/d/e/^f/ |!f! g!p! [Gg][Gg][Gg] [Gg][Gg][Gg][Gg] | %261
"_cresc." [G_B^cg][GBcg][GBcg][GBcg] [GBcg][GBcg][GBcg][GBcg] | %262
!pp!"_cresc." [G=Bdg] [gg']2 [ff']2 [ee']2 [dd']- | [dd'] [c=c']2 [Bb]2 [Aa]2 [Gg] | %264
 [Ff]/D/E/F/ G/A/B/^c/ d/F/G/A/ B/c/d/e/ | f/d/e/f/ g/a/b/^c'/ d'/c'/d'/e'/ f'/c'/d'/e'/ | %266
!pp! f' [ff']2 [ee']2 [dd']2 [=c=c']- | [cc'] [Bb]2 [Aa]2 [Gg]2 [Ff] | %268
 [Ee]/E/F/G/ A/B/c/d/ e/A/B/c/ d/e/^f/^g/ | a/e/^f/^g/ a/b/c'/d'/ e'/d'/c'/b/ a/b/c'/a/ | %270
 z/"_cresc." =F/=G/A/ B/c/d/e/ =f/B/c/d/ e/f/g/a/ | b/f/g/a/ b/c'/d'/e'/ f'/e'/d'/c'/ b/c'/d'/b/ | %272
 z/ g/a/b/ c'/d'/e'/f'/ g'/f'/e'/d'/ ^c'/d'/e'/c'/ | z/ ^c/d/e/ f/g/a/f/- f/^d/e/f/ g/a/b/g/- | %274
 g/e/f/g/ a/b/c'/a/- a/^f/g/a/ b/c'/d'/b/- | b/^g/a/b/ c'/d'/e'/c'/- c'/^a/b/c'/ d'/e'/f'/d'/ | %276
!ff! z (3(=g/c'/g'/) z (3(g/c'/g'/) z (3(^g/c'/^g'/) z (3(g/c'/g'/) | %277
!f! a/a'/=g'/f'/ e'/d'/c'/b/ a/g/f/e/ d/c/B/A/ | %278
 ^G/A/=G/F/ E/D/C/B,/[I:staff +1] A,/G,/F,/E,/ D,/C,/B,,/A,,/ | %279
 G,,/C,/B,,/D,/ C,/E,/^D,/F,/ E,/G,/^F,/A,/ G,/C/B,/=D/ | %280
[I:staff -1] C/E/^D/=F/ E/G/^F/A/ G/c/B/=d/ c/e/^d/=f/ | %281
 e/g/^f/a/ !wedge!g/c'/b/c'/ !wedge!g/e'/^d'/e'/ !wedge!g/c'/b/c'/ | %282
 !wedge!g/e'/^d'/e'/ !wedge!g/c'/b/c'/ !wedge!g/e'/d'/e'/ !wedge!g/c'/b/c'/ | %283
 !fermata![bf']8{!fermata!f'!fermata!e'!fermata!d'!fermata!c'!fermata!b!fermata!a!fermata!g!fermata!f!fermata!e!fermata!d!fermata!c!fermata!B} | %284
 !fermata![Bf]8{!fermata!f!fermata!e!fermata!d!fermata!c!fermata!B!fermata!A!fermata!G!fermata!F} | %285
!p!"_dolce" [CE]4 [B,D]2 C2 |[I:staff +1] ([^G,B,]4 A,4 |"_cresc."[I:staff -1] B4 c2 d2 | %288
!>(! e4 d2 gf)!>)! |!p! z2 ([c'e']2 [fbd']2 [eac']2 | b4 a4 |"_cresc." =g4 a2!p! !fermata!b2) | %292
"_cresc." G8 | _A4!p! !fermata!B4 | %294
"^https://musescore.org/en/node/279182""_ritardando""_cresc."[I:staff +1] G,8 | %295
 =A,4!p! !fermata!B,4 |"^a tempo"!pp![I:staff -1] C [CE][CE][CE] [CE][CE][CE][CE] | %297
 [CE][CE][CE][CE] [CE][CE][D^F][DF] |"_cresc." (GB/A/ !wedge!G) z (ce/d/ !wedge!c) z | %299
 (fa/g/ !wedge!f) z f'/e'/f'/e'/ f'/e'/f'/e'/ |!ff! f'/e'/d'/c'/ b/a/g/f/ e/d/c/B/ A/G/F/E/ | %301
 !wedge!D2 !wedge![GBdg]2 z4 |!ff! !wedge![EGce]2 z2 !wedge![GBdg]2 z2 | !wedge![cegc']2 z2 z4 |] %304
V:3
 C,,[C,,G,,][C,,G,,][C,,G,,] [C,,G,,][C,,G,,][C,,G,,][C,,G,,] | %1
 [C,,G,,][C,,G,,][C,,G,,][C,,G,,] [C,,G,,][C,,G,,][C,,A,,][C,,A,,] |: %2
 [B,,,G,,][B,,,G,,][B,,,G,,][B,,,G,,] [B,,,G,,][B,,,G,,][B,,,G,,][B,,,G,,] | %3
 [B,,,G,,][B,,,G,,][B,,,G,,][B,,,G,,] [B,,,G,,][B,,,G,,][B,,,G,,][B,,,G,,] | %4
 [_B,,,F,,][B,,,F,,][B,,,F,,][B,,,F,,] [B,,,F,,][B,,,F,,][B,,,F,,][B,,,F,,] | %5
 [_B,,,F,,][B,,,F,,][B,,,F,,][B,,,F,,] [B,,,F,,][B,,,F,,][B,,,G,,][B,,,G,,] | %6
 [A,,,F,,][A,,,F,,][A,,,F,,][A,,,F,,] [A,,,F,,][A,,,F,,][A,,,F,,][A,,,F,,] | %7
 [_A,,,F,,][A,,,F,,][A,,,F,,][A,,,F,,] [A,,,F,,][A,,,F,,][A,,,F,,][A,,,F,,] | %8
 [G,,,F,,][G,,,F,,][G,,,F,,][G,,,F,,] [G,,,F,,][G,,,F,,][_A,,,F,,][A,,,F,,] | %9
 [G,,,F,,][G,,,F,,][_A,,,F,,][A,,,F,,] [G,,,F,,][G,,,F,,][A,,,F,,][A,,,F,,] | %10
 [G,,,F,,]2 [G,,G,]4- [G,,G,]=A,/B,/ | C z [G,,G,] z [_E,,_E,] z [A,,,C,] z | !fermata![G,,,G,,]8 | %13
 [C,,C,]C,/G,/ C,/G,/C,/G,/ C,/G,/C,/G,/ C,/G,/C,/G,/ | %14
 C,/G,/C,/G,/ C,/G,/C,/G,/ C,/G,/C,/G,/ C,/G,/C,/G,/ | %15
 [B,,D,]/G,/[B,,D,]/G,/ [B,,D,]/G,/[B,,D,]/G,/ [B,,D,]/G,/[B,,D,]/G,/ [B,,D,]/G,/[B,,D,]/G,/ | %16
 [B,,D,]/G,/[B,,D,]/G,/ [B,,D,]/G,/[B,,D,]/G,/ [B,,D,]/G,/[B,,D,]/G,/ [B,,D,]/G,/[B,,D,]/G,/ | %17
 [D,,D,]D,/A,/ D,/A,/D,/A,/ D,/A,/D,/A,/ D,/A,/D,/A,/ | %18
 D,/A,/D,/A,/ D,/A,/D,/A,/ D,/A,/D,/A,/ D,/A,/D,/A,/ | %19
 [C,E,]/A,/[C,E,]/A,/ [C,E,]/A,/[C,E,]/A,/ [C,E,]/A,/[C,E,]/A,/ [C,E,]/A,/[C,E,]/A,/ | %20
 [C,E,]/A,/[C,E,]/A,/ [C,E,]/A,/[C,E,]/A,/ [C,E,]/A,/[C,E,]/A,/ [C,E,]/A,/[C,E,]/A,/ | %21
 [C,E,]/^A,/[C,E,]/A,/ [C,E,]/A,/[C,E,]/A,/ [C,E,]/A,/[C,E,]/A,/ [C,E,]/A,/[C,E,]/A,/ | %22
 B,,/^D,/^F,/B,/ B,,/D,/F,/B,/ B,,/D,/F,/B,/ B,,/D,/F,/B,/ | %23
 B,,/^F,/=A,/B,/ B,,/F,/A,/B,/ B,,/F,/A,/B,/ B,,/F,/A,/B,/ | %24
 B,,/^D,/^F,/B,/ B,,/D,/F,/B,/ B,,/D,/F,/B,/ B,,/D,/F,/B,/ | %25
 B,,/^F,/A,/B,/ B,,/F,/A,/B,/ B,,/F,/A,/B,/ B,,/F,/A,/B,/ | %26
 B,,/^D,/^F,/B,/ ^A,/B,/G,/E,/ B,,/D,/F,/B,/ A,/B,/G,/E,/ | %27
 B,,/^D,/^F,/B,/ B,,/D,/F,/B,/ B,,/D,/F,/B,/ B,,/D,/F,/B,/ | [B,,^D,^F,B,]2 z2 z4 | %29
 z4 z2 B,,,/^D,,/^F,,/B,,/ | %30
"_decresc." !wedge!B,,,!wedge!B,,!wedge!^C,,!wedge!^C, !wedge!^D,,!wedge!^D, z2 | %31
 !wedge!^D,,!wedge!^D,!wedge!E,,!wedge!E, !wedge!F,,!wedge!^F, z2 | %32
 z4 !wedge!^F,,!wedge!^F,!wedge!^G,,!wedge!^G, | %33
 !wedge!A,,!wedge!A,!wedge!B,,!wedge!B, !wedge!^C,!wedge!^C!wedge!^D,!wedge!^D | %34
[K:treble] ([E^G]4 [B,^D^F]2 [^CE]2 | [^G,^B,^D]4 [A,^C]4) | %36
[K:bass] ([^F,A,=B,^D]4 [^G,B,E]2 [A,^C^F]2 |[K:treble] [E^G]4 [^D^F]4) | %38
[K:bass] [E,^G,]4 [B,,^D,^F,]2 [^C,E,]2 | ^F,4 E,4 | (([E,^G,]2 [^F,A,]6)) | ^G,2 z2 z4 | %42
[K:treble] ([E^G]4 [B,^D^F]2 [^CE]2 | [^G,^B,^D]4 [A,^C]4) | %44
[K:bass] [^F,A,=B,^D]4 [^G,B,E]2 [A,^C^F]2 |[K:treble] (([E^G]4 [^D^F]2))[K:bass] (3(B,,^C,^D,) | %46
 ([E,^G,]4 [B,,^D,^F,]2 [^C,E,]2 | [^G,,^B,,^D,]4) [A,,^C,]4 | [=B,,,=B,,]8 | ^G,2 B,,4 B,,2- | %50
 B,,2 B,,4 B,,2 | (3E,B,,^G,, (3B,,E,^G, (3^F,^D,B,, (3D,F,A, | %52
 (3^G,E,B,, (3E,G,B, (3A,^F,^D, (3^DA,F, | (3^G,B,E (3B,G,E, (3^D,^F,A, (3F,D,B,, | %54
 (3E,^G,B, (3G,E,B,, (3^F,A,B, (3A,B,^F | (3^G,B,E (3E,G,B, (3^F,A,B, (3A,B,^F | %56
 (3^G,B,E (3E,G,B, (3^F,A,B, (3A,B,^F | ^G,/B,/E,/B,/ ^F,/B,/A,/B,/ G,/B,/E,/B,/ F,/B,/A,/B,/ | %58
 ^G,/B,/A,/B,/ G,/B,/A,/B,/ G,/B,/A,/B,/ G,/B,/A,/B,/ | %59
 ^G,/B,/^G,,/E,/ G,,/E,/G,,/E,/ G,,/E,/G,,/E,/ G,,/E,/G,,/E,/ | %60
 ^G,,/E,/G,,/E,/ G,,/E,/G,,/E,/ G,,/E,/G,,/E,/ G,,/E,/G,,/E,/ | %61
 [A,,^C,E,][A,,C,E,] z [A,,C,E,] [A,,C,E,][A,,C,E,] z [A,,C,E,] | %62
 [A,,^C,E,][A,,C,E,] z [A,,C,E,] [A,,C,E,][A,,C,E,] z [A,,C,E,] | %63
 [^A,,^C,E,^F,][A,,C,E,F,] z [A,,C,E,F,] [A,,C,E,F,][A,,C,E,F,] z [A,,C,E,F,] | %64
 [^A,,^C,E,^F,][A,,C,E,F,] z [A,,C,E,F,] [A,,C,E,F,][A,,C,E,F,] z [A,,C,E,F,] | %65
 B,,/E,/^G,/B,/ B,,/E,/G,/B,/ B,,/E,/G,/B,/ B,,/E,/G,/B,/ | %66
 B,,/E,/^G,/B,/ B,,/E,/G,/B,/ !wedge!G,!wedge!G,!wedge!E,!wedge!B,, | %67
 !wedge!B,!wedge!^G,!wedge!E!wedge!B,[K:treble] !wedge!^G!wedge!E!wedge!B!wedge!G | %68
 !wedge!e!wedge!B!wedge!e!wedge!B !wedge!e!wedge!B!wedge!e!wedge!B | %69
 !wedge!^d!wedge!B!wedge!d!wedge!B !wedge!d!wedge!B!wedge!d!wedge!B | %70
 !wedge!^d!wedge!B!wedge!d!wedge!B !wedge!d!wedge!B!wedge!d!wedge!B | !trill(!T^d8- | %72
 !trill(!T^d8({^c^d)} | (e4 [^GB=d]4 | [A=c]4 [^GBd]4 | c2) z2 ([A,C^FA]4 | [B,E=G]4 [B,^D^F]4) | %77
[K:bass] (E4 [^G,B,=D]4 | [A,C]4 [^G,B,D]4 | C2) z2 ([A,,C,^F,A,]4 | [B,,E,=G,]4 [B,,^D,^F,]4) | %81
 [E,G,]2 E,2- (E,=F,G,A,) | ([G,B,]4 [^F,A,]4) | [E,G,]2 C,2- C,=D,E,=F, | [E,G,]4 [D,F,]4 |1 %85
 [C,,C,][C,,G,,][C,,G,,][C,,G,,] [C,,G,,][C,,G,,][C,,G,,][C,,G,,] | %86
 [C,,G,,][C,,G,,][C,,G,,][C,,G,,] [C,,G,,][C,,G,,][C,,A,,][C,,A,,] :|2 E,2 F,2- (F,G,A,_B,) | %88
 [A,C]4 [G,_B,]4 || [F,A,]2 F,,2- F,,G,,A,,_B,, | ([A,,C,]4 [G,,_B,,]4) | %91
 [F,,,F,,][F,,,C,,][F,,,C,,][F,,,C,,] [F,,,C,,][F,,,C,,][F,,,C,,][F,,,C,,] | %92
 [F,,,C,,][F,,,C,,][F,,,C,,][F,,,C,,] [F,,,C,,][F,,,C,,][F,,,D,,][F,,,D,,] | %93
 [E,,G,,][E,,G,,][E,,G,,][E,,G,,] [E,,G,,][E,,G,,][E,,G,,][E,,G,,] | %94
 [_E,,G,,][E,,G,,][E,,G,,][E,,G,,] [E,,G,,][E,,G,,][E,,G,,][E,,G,,] | %95
 [D,,A,,][D,,A,,][D,,A,,][D,,A,,] [D,,A,,][D,,A,,][D,,A,,][D,,A,,] | %96
 [^F,,D,][F,,D,][F,,D,][F,,D,] [F,,D,][F,,D,][F,,D,][F,,D,] | %97
 G,,/D,/G,,/D,/ G,,/D,/G,,/D,/ G,,/D,/G,,/D,/ G,,/D,/G,,/D,/ | %98
 _B,,/D,/B,,/D,/ B,,/D,/B,,/D,/ ^F,,/D,/F,,/D,/ F,,/D,/F,,/D,/ | %99
 G,,/D,/G,,/D,/ G,,/D,/G,,/D,/ A,,/D,/A,,/D,/ A,,/D,/A,,/D,/ | %100
 _B,,/D,/B,,/D,/ B,,/G,/B,,/G,/ =B,,/G,/B,,/G,/ B,,/G,/B,,/G,/ | %101
 C,/G,/C,/G,/ C,/G,/C,/G,/ D,/G,/D,/G,/ D,/G,/D,/G,/ | %102
 _E,/G,/E,/G,/ E,/G,/E,/G,/ B,,/G,/B,,/G,/ B,,/G,/B,,/G,/ | %103
 C,/G,/C,/G,/ C,/G,/C,/G,/ D,/G,/D,/G,/ D,/G,/D,/G,/ | %104
 _E,/G,/E,/G,/ E,/C/E,/C/ =E,/C/E,/C/ E,/C/E,/C/ | F,/_A,/C/F/ F,/A,/C/F/ F,/_B,/_D/F/ F,/B,/D/F/ | %106
 F,/_G,/_B,/_D/ F,/G,/B,/D/ _E,/G,/_C/_E/ E,/G,/C/E/ | %107
 _E,/F,/=A,/=C/ E,/F,/A,/C/ _D,/F,/_B,/_D/ D,/F,/B,/D/ | %108
 _D,/_E,/G,/_B,/ D,/E,/G,/B,/ C,/E,/_A,/C/ C,/E,/A,/C/ | %109
 C,/_D,/F,/_A,/ C,/D,/F,/A,/ _B,,/D,/_G,/_B,/ B,,/D,/G,/B,/ | %110
 _B,,/C,/=E,/=G,/ B,,/C,/E,/G,/ _A,,/C,/F,/_A,/ A,,/C,/F,/A,/ | %111
 G,,/_B,,/E,/G,/ G,,/B,,/E,/G,/ F,,/_A,,/C,/F,/ (3F,,A,,F, | %112
 (3E,,G,,E, (3_E,,G,,_E, (3D,,F,,F, (3_D,,F,,_F, | %113
 (3([C,,C,]G,,=E,, (3G,,C,E, (3D,B,,G,, (3B,,D,F, | (3E,G,C (3G,E,C, (3F,_A,C (3A,F,C, | %115
 (3G,_B,-[B,C-] C2- C4-) | C8 | (3([F,,F,]C,=A,, (3C,F,=A, (3G,E,C, (3E,G,_B, | %118
 (3A,CF (3CA,F, (3_B,_DF (3DB,F, | (3C_E-[EF-] F2- F4-) | F8 | %121
 (3([_B,,,_B,,]F,,=D,, (3F,,B,,=D, (3C,A,,F,, (3A,,C,_E, | %122
 (3D,F,_B, (3F,D,_B,, (3_E,_G,B, (3G,E,B,, | (3F,_A,-[A,B,-] B,2- B,4-) | B,8 | %125
 (3_E,_G,-[G,_B,-] B,2- B,4- | B,8 | (3^C,^F,-[F,^A,-] A,2- A,4- | ^A,8 | %129
 (3=D,^F,-[F,B,-] B,2- B,4- | B,8 | (3D,G,-[G,B,-] B,2- B,4- | B,8 | (3_E,G,-[G,C-] C2- C4- | C8 | %135
 (3_A,_D-[DF-] F2- F4 | (3C_E-[E^F-] F2- F4 | (3B,D-[DG-] G2- ([B,DG]2 D2 | B,2 G,2 C2 ^F2) | %139
 (3B,,D,-[D,G,-] G,2- ([B,,D,G,]2 D,2 | B,,2 G,,2 C,2 ^F,2) | G, z C,2 G,,2 C,,2 | %142
 G,,,2 C,,2 G,,,2 C,,2 | %143
 G,,,/C,,/B,,,/A,,,/ G,,,/C,,/B,,,/A,,,/ G,,,/C,,/B,,,/A,,,/ G,,,/C,,/B,,,/A,,,/ | G,,,8- | %145
 G,,,/C,,/B,,,/A,,,/ G,,,/C,,/B,,,/A,,,/ G,,,/C,,/B,,,/A,,,/ G,,,/C,,/B,,,/A,,,/ | G,,,8- | %147
 G,,,/C,,/B,,,/A,,,/ G,,,/C,,/B,,,/A,,,/ G,,,/C,,/B,,,/A,,,/ G,,,/C,,/B,,,/A,,,/ | %148
 G,,,/C,,/B,,,/A,,,/ G,,,/C,,/B,,,/A,,,/ G,,,/C,,/B,,,/A,,,/ G,,,/C,,/B,,,/A,,,/ | %149
 G,,,/C,,/B,,,/A,,,/ G,,,/C,,/B,,,/A,,,/ G,,,/C,,/B,,,/A,,,/ G,,,/C,,/B,,,/A,,,/ | %150
 G,,,/C,,/B,,,/A,,,/ G,,,/C,,/B,,,/A,,,/ G,,,/C,,/B,,,/A,,,/ G,,,/C,,/B,,,/A,,,/ | %151
 G,,,/C,,/B,,,/A,,,/ G,,,/C,,/B,,,/A,,,/ G,,,/C,,/B,,,/A,,,/ G,,,/C,,/B,,,/A,,,/ | %152
 G,,,/C,,/B,,,/A,,,/ G,,,/C,,/B,,,/A,,,/ G,,,/C,,/B,,,/A,,,/ G,,,/C,,/B,,,/A,,,/ | %153
 G,,,/C,,/B,,,/A,,,/ G,,,/C,,/B,,,/A,,,/ G,,,/^C,,/B,,,/A,,,/ G,,,/C,,/B,,,/A,,,/ | %154
 G,,,/D,,/B,,,/A,,,/ G,,,/D,,/B,,,/A,,,/ G,,,/D,,/B,,,/A,,,/ G,,,/D,,/B,,,/A,,,/ | %155
 G,,,/A,,,/B,,,/C,,/ D,,/C,,/B,,,/A,,,/ G,,,/A,,,/B,,,/C,,/ D,,/C,,/B,,,/A,,,/ | %156
 G,,,A,,,/B,,,/ C,,/D,,/E,,/F,,/ G,,/A,,/B,,/C,/ D,/E,/F,/G,/ | %157
 C, [C,,G,,][C,,G,,][C,,G,,] [C,,G,,][C,,G,,][C,,G,,][C,,G,,] | %158
 [C,,G,,][C,,G,,][C,,G,,][C,,G,,] [C,,G,,][C,,G,,][C,,A,,][C,,A,,] | %159
 [B,,,G,,][B,,,G,,][B,,,G,,][B,,,G,,] [B,,,G,,][B,,,G,,][B,,,G,,][B,,,G,,] | %160
 [G,,,F,,][G,,,F,,][G,,,F,,][G,,,F,,] [G,,,F,,][G,,,F,,][G,,,F,,][G,,,F,,] | %161
 [_B,,,F,,][B,,,F,,][B,,,F,,][B,,,F,,] [B,,,F,,][B,,,F,,][B,,,F,,][B,,,F,,] | %162
 [_B,,,F,,][B,,,F,,][B,,,F,,][B,,,F,,] [B,,,F,,][B,,,F,,][B,,,G,,][B,,,G,,] | %163
 [A,,,F,,][A,,,F,,][A,,,F,,][A,,,F,,] [A,,,F,,][A,,,F,,][A,,,F,,][A,,,F,,] | %164
 [_A,,,F,,][A,,,F,,][A,,,F,,][A,,,F,,] [A,,,F,,][A,,,F,,][A,,,F,,][A,,,F,,] | %165
 [G,,,F,,][G,,,F,,][G,,,F,,][G,,,F,,] [G,,,F,,][G,,,F,,][_A,,,F,,][A,,,F,,] | %166
 [G,,,F,,][G,,,F,,][_A,,,F,,][A,,,F,,] [G,,,F,,][G,,,F,,][A,,,F,,][A,,,F,,] | %167
 [G,,,F,,]2 [G,,G,]4- [G,,G,]=A,/B,/ | C z [G,,G,] z [_E,,_E,] z [C,,C,] z | %169
 !fermata![_A,,,_A,,]8 | _D z _A, z F, z _D, z | !fermata![_B,,,_B,,]8 | _E z _B, z G, z _E, z | %173
 F, z _A, z =A, z ^F, z | G, z ^F, z G, z G,, z | %175
 [C,,C,]C,/G,/ C,/G,/C,/G,/ C,/G,/C,/G,/ C,/G,/C,/G,/ | %176
 C,/G,/C,/G,/ C,/G,/C,/G,/ C,/G,/C,/G,/ C,/G,/C,/G,/ | %177
 [B,,D,]/G,/[B,,D,]/G,/ [B,,D,]/G,/[B,,D,]/G,/ [B,,D,]/G,/[B,,D,]/G,/ [B,,D,]/G,/[B,,D,]/G,/ | %178
 [B,,D,]/G,/[B,,D,]/G,/ [B,,D,]/G,/[B,,D,]/G,/ [B,,D,]/G,/[B,,D,]/G,/ [B,,D,]/G,/[B,,D,]/G,/ | %179
 [D,,D,]D,/A,/ D,/A,/D,/A,/ D,/A,/D,/A,/ D,/A,/D,/A,/ | %180
 D,/A,/D,/A,/ D,/A,/D,/A,/ D,/A,/D,/A,/ D,/A,/D,/A,/ | %181
 [C,E,]/A,/[C,E,]/A,/ [C,E,]/A,/[C,E,]/A,/ [C,E,]/A,/[C,E,]/A,/ [C,E,]/A,/[C,E,]/A,/ | %182
 [C,E,]/A,/[C,E,]/A,/ [C,E,]/A,/[C,E,]/A,/ [C,E,]/A,/[C,E,]/A,/ [C,E,]/A,/[C,E,]/A,/ | %183
 [F,A,]/C/[F,A,]/C/ [F,A,]/C/[F,A,]/C/ [F,A,]/D/[F,A,]/D/ [F,A,]/D/[F,A,]/D/ | %184
 [F,A,]/^D/[F,A,]/D/ [F,A,]/D/[F,A,]/D/ [F,A,]/C/[F,A,]/C/ F,/A,/F,/A,/ | %185
 E,/^G,/B,/E/ E,/G,/B,/E/ E,/A,/C/E/ E,/A,/C/E/ | E,/B,/D/E/ E,/B,/D/E/ E,/A,/C/E/ E,/A,/C/E/ | %187
 E,/^G,/B,/E/ E,/G,/B,/E/ E,/A,/C/E/ E,/A,/C/E/ | E,/B,/D/E/ E,/B,/D/E/ E,/A,/C/E/ E,/A,/C/E/ | %189
 E,/^G,/B,/E/ ^D/E/C/A,/ E,/G,/B,/E/ D/E/C/A,/ | E,/^G,/B,/E/ E,/A,/C/E/ E,/G,/B,/E/ E,/A,/C/E/ | %191
 [E,^G,B,E]2 z2 z4 | z4 z2 E,,/^G,,/B,,/E,/ | %193
 !wedge!E,,!wedge!E,!wedge!^F,,!wedge!^F, !wedge!^G,,!wedge!^G, z2 | %194
 !wedge!^G,,!wedge!^G,!wedge!A,,!wedge!A, !wedge!B,,!wedge!B, z2 | %195
 z4 !wedge!B,,!wedge!B,!wedge!^C,!wedge!^C | %196
 !wedge!D,!wedge!D!wedge!E,!wedge!E !wedge!^F,!wedge!^F!wedge!^G,!wedge!^G | %197
[K:treble] ([A,^CEA]4[K:bass] [E,^G,B,E]2 [^F,A,C^F]2 | [^C,^E,^G,^C]4 [D,^F,A,D]4) | %199
 ([B,,=E,^G,B,]4 [^C,E,A,^C]2 [D,^F,B,D]2 | [A,^CE]4 [^G,B,E]4) | ([A,=C]4 [E,=G,B,]2 [=F,A,]2 | %202
 [C,E,G,]4 [D,F,]4) | (([C,E,]2 [D,F,]6)) | [C,E,]2 z2 z4 |[K:treble] ([ce]4 [^GBdf]2 [Ace]2 | %206
 [E^GBd]4 [FAc]4) | ([DF=GB]4 [EGc]2 [FAcd]2 | (([G-ce]4) [GBd]2))[K:bass] (3(G,A,B,) | %209
 ([CE]4 [^G,B,D]2 [A,C]2 | [E,^G,B,]4 [F,A,]4) | (([C,E,]2 [D,F,]6)) | [C,,C,]2 G,,4 G,,2- | %213
 G,,2 G,,4 G,,2 | (3C,G,,E,, (3G,,C,E, (3D,B,,G,, (3B,,D,F, | %215
 (3E,C,G,, (3C,E,G, (3F,D,B,, (3B,F,D, | (3E,G,C (3G,E,C, (3B,,D,F, (3D,B,,G,, | %217
 (3C,E,G, (3E,C,G,, (3D,F,G, (3F,G,D | (3E,G,C (3C,E,G, (3D,F,G, (3F,G,D | %219
 (3E,G,C (3C,E,G, (3D,F,G, (3F,G,D | E,/G,/C,/G,/ D,/G,/F,/G,/ E,/G,/C,/G,/ D,/G,/F,/G,/ | %221
 E,/G,/F,/G,/ E,/G,/F,/G,/ E,/G,/F,/G,/ E,/G,/F,/G,/ | %222
 E,/G,/E,,/C,/ E,,/C,/E,,/C,/ E,,/C,/E,,/C,/ E,,/C,/E,,/C,/ | %223
 E,,/C,/E,,/C,/ E,,/C,/E,,/C,/ E,,/C,/E,,/C,/ E,,/C,/E,,/C,/ | %224
 [F,,A,,C,][F,,A,,C,] z [F,,A,,C,] [F,,A,,C,][F,,A,,C,] z [F,,A,,C,] | %225
 [F,,A,,C,][F,,A,,C,] z [F,,A,,C,] [F,,A,,C,][F,,A,,C,] z [F,,A,,C,] | %226
 [^F,,A,,C,D,][F,,A,,C,D,] z [F,,A,,C,D,] [F,,A,,C,D,][F,,A,,C,D,] z [F,,A,,C,D,] | %227
 [^F,,A,,C,D,][F,,A,,C,D,] z [F,,A,,C,D,] [F,,A,,C,D,][F,,A,,C,D,] z [F,,A,,C,D,] | %228
 G,,/C,/E,/G,/ G,,/C,/E,/G,/ G,,/C,/E,/G,/ G,,/C,/E,/G,/ | %229
 G,,/C,/E,/G,/ G,,/C,/E,/G,/ !wedge!E,!wedge!E,!wedge!C,!wedge!G,, | %230
 !wedge!G,!wedge!E,!wedge!C!wedge!G,[K:treble] !wedge!E!wedge!C!wedge!G!wedge!E | %231
 !wedge!c!wedge!G!wedge!e!wedge!c !wedge!g!wedge!e!wedge!c'!wedge!g | %232
 !wedge!b!wedge!g!wedge!b!wedge!g !wedge!b!wedge!g!wedge!b!wedge!g | %233
 !wedge!b!wedge!g!wedge!b!wedge!g !wedge!b!wedge!g!wedge!b!wedge!g | !trill(!Tb8- | %235
 !trill(!Tb8({ab)} | (c4 [EG_B]4 | [F_A]4 [EG_B]4 | _A2) z2[K:bass] ([F,_A,_DF]4 | %239
 [G,C_E]4) [G,=B,=D]4 | (C4 [=E,G,_B,]4 | [F,=A,]4 [E,G,_B,]4 | A,2) z2 ([F,,A,,D,]4 | %243
 [C,E,]4 [D,F,]4) | E,2 C,2- (C,D,E,F,) | (([E,G,]4 [D,F,]4)) | [C,E,]2 F,2- F,G,A,_B, | %247
 ([A,C]4 [G,_B,]4) | [F,_A,]2 F,2- (F,G,A,_B,) | (([_A,C]4 [G,_B,]4)) | %250
 [_D,F,_A,] [_D,,A,,][D,,A,,][D,,A,,] [D,,A,,][D,,A,,][D,,A,,][D,,A,,] | %251
 [_D,,A,,][D,,A,,][D,,A,,][D,,A,,] [D,,A,,][D,,A,,][D,,_B,,][D,,B,,] | %252
 [C,,_E,,_A,,][C,,E,,A,,][C,,E,,A,,][C,,E,,A,,] [C,,E,,A,,][C,,E,,A,,][C,,E,,A,,][C,,E,,A,,] | %253
 [C,,_E,,F,,=A,,][C,,E,,F,,A,,][C,,E,,F,,A,,][C,,E,,F,,A,,] [C,,E,,F,,A,,][C,,E,,F,,A,,][C,,E,,F,,A,,][C,,E,,F,,A,,] | %254
 [_D,,F,,_B,,][D,,F,,B,,][D,,F,,B,,][D,,F,,B,,] [D,,F,,B,,][D,,F,,B,,][D,,F,,B,,][D,,F,,B,,] | %255
 [=D,,F,,=B,,][D,,F,,B,,][D,,F,,B,,][D,,F,,B,,] [D,,F,,B,,][D,,F,,B,,][D,,F,,B,,][D,,F,,B,,] | %256
 [_E,,G,,B,,][E,,G,,B,,][E,,G,,C,][E,,G,,C,] [F,,_A,,C,][F,,A,,C,][F,,A,,D,][F,,A,,D,] | %257
 [G,,_B,,D,][G,,B,,D,][G,,B,,=E,][G,,B,,E,] [_A,,C,E,][A,,C,E,][A,,C,F,][A,,C,F,] | %258
 [=A,,C,^F,][A,,C,F,][A,,C,F,][A,,C,F,] [A,,C,F,][A,,C,F,][A,,C,F,][A,,C,F,] | %259
 [_A,,C,^F,][A,,C,F,][A,,C,F,][A,,C,F,] [A,,C,_E,][A,,C,E,][A,,C,][A,,C,] | [G,,B,,] z z2 z4 | z8 | %262
 [B,,D,][B,,D,][B,,D,][B,,D,] [B,,D,][B,,D,][B,,D,][B,,D,] | %263
 [B,,D,][B,,D,][B,,D,][B,,D,] [B,,D,][B,,D,][^C,E,][C,E,] | (F,3 A,/G,/ !wedge!F,) z z2 | %265
[K:treble] (A2- A/G/F/E/ !wedge!D2) z2 | %266
[K:bass] [A,,=C,][A,,C,][A,,C,][A,,C,] [A,,C,][A,,C,][A,,C,][A,,C,] | %267
 [A,,C,][A,,C,][A,,C,][A,,C,] [A,,C,][A,,C,][B,,D,][B,,D,] | E,3 G,/F,/ !wedge!E, z z2 | %269
{/C,} E2- E/D/C/B,/ !wedge!A, z z2 | (F,3 A,/G,/ !wedge!F,) z z2 | %271
{/D,} F2- F/E/D/C/ !wedge!B,2 z2 |{/E,} G2- G/F/E/D/ !wedge!^C2 z2 | %273
[K:treble]{/F,} A2 G/F/E/D/{/G,} B2 A/G/F/E/ |{/A,} c2 B/A/G/F/{/B,} d2 c/B/A/G/ | %275
{/C} e2 d/c/B/A/{/D} f2 e/d/c/B/ | (3(E/c/e/) z (3(E/c/e/) z (3(E/c/e/) z (3(E/c/e/) z | %277
 [Fcf]2 z2 z4 | z2[K:bass] F,,,2- F,,,/G,,,/A,,,/B,,,/ C,,/D,,/E,,/F,,/ | [G,,,C,,E,,]2 z2 z4 | %280
 z8 | z2[K:treble] z/ e/^d/e/ !wedge!G/c/B/c/ !wedge!G/e/d/e/ | %282
 !wedge!G/c/B/c/ !wedge!G/e/^d/e/ !wedge!G/c/B/c/ !wedge!G/e/d/e/ | !fermata![G=df]8 | %284
[K:bass] !fermata![E,B,D]8 | G,4 F,2 [E,A,]2 | [E,,D,]4 [F,,C,]4 | %287
 [D,F,=G,B,]4 [E,G,C]2 [F,A,CD]2 | (([CE]4 [B,D]4)) |[K:treble] ([ce]4 [^GBd]2 [Ac]2 | %290
 [E^GB]4 [FA]4) | (([CE]2 !fermata![DF]6)) |[K:bass] (([C,E,]2 [D,F,]6-)) | [D,F,]8 | %294
 [C,,E,,]2 [D,,F,,]6- | [D,,F,,]8 | E, [C,G,][C,G,][C,G,] [C,G,][C,G,][C,G,][C,G,] | %297
 [C,G,][C,G,][C,G,][C,G,] [C,G,][C,G,][C,A,][C,A,] | %298
 [B,,D,G,][B,,D,G,][B,,D,G,][B,,D,G,] [_B,,C,G,][B,,C,G,][B,,C,G,][B,,C,G,] | %299
 [A,,C,F,][A,,C,F,][A,,C,F,][A,,C,F,] [_A,,C,F,] [_A,,,A,,][A,,,A,,][A,,,A,,] | %300
 [G,,,G,,]/=A,,,/B,,,/C,,/ D,,/E,,/F,,/G,,/ =A,,/B,,/C,/D,/ E,/F,/G,/A,/ | %301
 !wedge![F,,F,]2 !wedge![G,,B,,D,G,]2 z4 | !wedge![C,E,G,C]2 z2 !wedge![G,,B,,D,G,]2 z2 | %303
 !wedge![C,,E,,G,,C,]2 z2 z4 |] %304
V:4
 x8 | x8 |: x8 | x8 | z z z z z z z z | x8 | x8 | x8 | x8 | x8 | x8 | x8 | x8 | x8 | x8 | x8 | x8 | %17
 x8 | x8 | x8 | x8 | x8 | x8 | x8 | x8 | x8 | x8 | x8 | x8 | x8 | x8 | x8 | x8 | x8 | %34
[K:treble] x8 | x8 |[K:bass] x8 |[K:treble] B,8 |[K:bass] (x4 x4 | [^G,,^B,,^D,]4 [A,,^C,]4) | %40
 [=B,,,=B,,]8 | [E,,E,]2 x6 |[K:treble] x8 | x8 |[K:bass] x8 |[K:treble] B,6[K:bass] x2 | x8 | x8 | %48
 x8 | [E,,E,]2 x6 | x8 | x8 | x8 | x8 | x8 | x8 | x8 | x8 | x8 | x8 | x8 | x8 | x8 | x8 | x8 | x8 | %66
 x8 | x4[K:treble] x4 | x8 | x8 | x8 | x8 | x8 | E8- | E8 | A2 x6 | x8 |[K:bass] E,8- | E,8 | %79
 A,2 x6 | x8 | x2 G,,2 A,,4 | B,,8 | C,2 E,,2 =F,,4 | G,,8 |1 x8 | x8 :|2 C,2 A,,2 _B,,4 | C,8 || %89
 D,2 A,,,2 _B,,,4 | C,,8 | x8 | x8 | x8 | x8 | x8 | x8 | x8 | x8 | x8 | x8 | x8 | x8 | x8 | x8 | %105
 x8 | x8 | x8 | x8 | x8 | x8 | x8 | x8 | x8 | x8 | G,2- (3[G,_B,-][G,B,]-[C,G,B,]- [C,G,B,]4- | %116
 [C,G,_B,]8 | x8 | x8 | C2- (3[C_E-][CE]-[F,CE]- [F,CE]4- | [F,CE]8 | x8 | x8 | %123
 F,2- (3[F,_A,-][F,A,]-[_B,,F,A,]- [B,,F,A,]4- | [B,,F,A,]8 | %125
 _E,2- (3[E,_G,-][E,G,]-[_B,,E,G,]- [B,,E,G,]4- | [B,,E,G,]8 | %127
 ^C,2- (3[C,^F,-][C,F,]-[^A,,C,F,]- [A,,C,F,]4- | [^A,,^C,^F,]8 | %129
 D,2- (3[D,^F,-][D,F,]-[B,,D,F,]- [B,,D,F,]4- | [B,,D,F,]8 | %131
 D,2- (3[D,G,-][D,G,]-[B,,D,G,]- [B,,D,G,]4- | [B,,D,G,]8 | %133
 _E,2- (3[E,G,][E,G,]-[C,E,G,]- [C,E,G,]4- | [C,E,G,]8 | _A,2- (3[A,_D-][A,D]-[F,A,D]- [F,A,D]4 | %136
 C2- (3[C_E-][CE-][^F,CE]- [F,CE]4 | B,2- (3[B,D-][B,D]-[G,B,D]- G,4- | G,2 G,6 | %139
 (B,,2- (3[B,,D,-][B,,D,]-[G,,B,,D,]-) G,,4- | G,,2 G,,6- | G,, x7 | x8 | x8 | %144
 !stemless![B,,D,G,]/ x15/2 | x8 | !stemless!G,/ x15/2 | x8 | x8 | x8 | x8 | x8 | x8 | x8 | x8 | %155
 x8 | x8 | x8 | x8 | x8 | x8 | x8 | x8 | x8 | x8 | x8 | x8 | x8 | x8 | x8 | x8 | x8 | x8 | x8 | %174
 x8 | x8 | x8 | x8 | x8 | x8 | x8 | x8 | x8 | x8 | x8 | x8 | x8 | x8 | x8 | x8 | x8 | x8 | x8 | %193
 x8 | x8 | x8 | x8 |[K:treble] x4[K:bass] x4 | x8 | x8 | E,8 | x8 | x8 | G,,8 | x8 |[K:treble] x8 | %206
 x8 | x8 | x6[K:bass] x2 | x8 | x8 | =G,,8 | x8 | x8 | x8 | x8 | x8 | x8 | x8 | x8 | x8 | x8 | x8 | %223
 x8 | x8 | x8 | x8 | x8 | x8 | x8 | x4[K:treble] x4 | x8 | x8 | x8 | x8 | x8 | C8- | C8 | %238
 F2 x2[K:bass] x4 | x8 | C,8- | C,8 | F,2 x6 | G,,8 | C,2 E,,2 F,,4 | G,,8 | x2 A,,2 _B,,4 | C,8 | %248
 x2 _A,,2 _B,,4 | C,8 | x8 | x8 | x8 | x8 | x8 | x8 | x8 | x8 | x8 | x8 | x8 | x8 | x8 | x8 | %264
 D,4- D, x3 |[K:treble] x8 |[K:bass] x8 | x8 | C,4- C, x3 | x8 | D,4- D, x3 | x8 | x8 | %273
[K:treble] x8 | x8 | x8 | x8 | x8 | x2[K:bass] x6 | x8 | x8 | x2[K:treble] x6 | x8 | x8 | %284
[K:bass] x8 | ([C,,C,]4 [^G,,,^G,,]2 [A,,,A,,]2 | x8 | x8 | G,8) |[K:treble] x8 | x8 | %291
 !fermata!G,8 |[K:bass] G,,8- | !fermata!G,,8 | G,,,8- | !fermata!G,,,8 | [C,,C,] x7 | x8 | x8 | %299
 x8 | x8 | x8 | x8 | x8 |] %304
V:5
 x8 | x8 |: x8 | x8 | x8 | x8 | x8 | x8 | x8 | x8 | x8 | x8 | x8 | x8 | x8 | x8 | x8 | x8 | x8 | %19
 x8 | x8 | x8 | x8 | x8 | x8 | x8 | x8 | x8 | x8 | x8 | x8 | x8 | x8 | x8 | [Be]4 [A^d]2 [^G^c]2 | %35
 [^F^B]4 E4 | [A=B]4 B2 [^ce]2 | B6 A2 | x8 | x8 | x8 | x8 | d4 A2 ^G2 | ^F4 E4 | A4 =B2 ^c2 | %45
 e4 (3^d^cB (3A^G^F | B,4 A,2 ^G,2 |[I:staff +1] ^F,4 E,4 | x2 ^F,2 F,2 F,2 | x8 | x8 | x8 | x8 | %53
 x8 | x8 | x8 | x8 | x8 | x8 | x8 | x8 | x8 | x8 | x8 | x8 | x8 | x8 | x8 | x8 | x8 | x8 | x8 | %72
 x8 | x8 | x8 | x4[I:staff -1] c4 | B4 A4 | x8 | x8 | x4 C4 | B,4 A,4 | x8 | x8 | x8 | x8 |1 x8 | %86
 x8 :|2 x8 | x8 || x6[K:bass] x2 | x8 | x8 | x8 | x8 |[K:treble] x8 | x8 | x8 | x8 | x8 | x8 | x8 | %101
 x8 | x8 | x8 | x8 | x8 | x8 | x8 | x8 | x8 | x8 | x8 | x8 | x8 | x8 | x8 | x8 | x8 | x8 | x8 | %120
 x8 | x8 | x8 | x8 | x8 | x8 | x8 | x8 | x8 | x8 | x8 | x8 | x8 | x8 | x8 | x8 | x8 | x8 | x8 | %139
 x8 | x8 | x8 | x8 | x8 | x8 | x8 | x8 | x8 | x8 | x8 | x8 | x8 | x8 | x8 | x8 | x8 | x8 | x8 | %158
 x8 | x8 | x8 | x8 | x8 | x8 | x8 | x8 | x8 | x8 | x8 | x8 | x8 | x8 | x8 | x8 | x8 | x8 | x8 | %177
 x8 | x8 | x8 | x8 | x8 | x8 | x8 | x8 | x8 | x8 | x8 | x8 | x8 | x8 | x8 | x8 | x8 | x8 | x8 | %196
 x8 | x8 | x8 | x8 | e4- e2 d2 | x8 | x8 | [CE]2- [CE]6 | [CE]2 x6 | c'4 b2 a2 | ^g4 f4 | %207
 f4 g2 a2 | c'4 (3bag (3fed | G4 F2 E2 | D4 C4 | C2 D2 D2 D2 | x8 | x8 | x8 | x8 | x8 | x8 | x8 | %219
 x8 | x8 | x8 | x8 | x8 | x8 | x8 | x8 | x8 | x8 | x8 | x8 | x8 | x8 | x8 | x8 | x8 | x8 | x8 | %238
 x4 _A4 | A4 F4 | x8 | x8 | x4 A,4 | G,8 | G,2 x6 | x8 | x8 | x8 | x8 | x8 | x8 | x8 | x8 | x8 | %254
 x8 | x8 | x8 | x8 | x8 | x8 | x8 | x8 | x8 | x8 | x8 | x8 | x8 | x8 | x8 | x8 | x8 | x8 | x8 | %273
 x8 | x8 | x8 | x8 | x8 | x8 | x8 | x8 | x8 | x8 | x8 | x8 | x8 | x8 | [F=G]4 G2 [Ac]2 | %288
 [Gc]4 [GB]4 | x8 | [d^g]4 c4 | (([ce]2 [df]4-)) !fermata![df]2 | (([CE]2 [DF]6-)) | [DF]4- [DF]4 | %294
[I:staff +1] (([C,E,]2 [D,F,]6-)) | [D,F,]4- [D,F,]4 | x8 | x8 | x8 | x8 | x8 | x8 | x8 | x8 |] %304
V:6
 x8 | x8 |: x8 | x8 | x8 | x8 | x8 | x8 | x8 | x8 | x8 | x8 | x8 | x8 | x8 | x8 | x8 | x8 | x8 | %19
 x8 | x8 | x8 | x8 | x8 | x8 | x8 | x8 | x8 | x8 | x8 | x8 | x8 | x8 | x8 | x8 | x8 | x8 | x8 | %38
 x8 | x8 | x8 | x8 | x8 | x8 | x8 | x8 | x8 | x8 | x8 | x8 | x8 | x8 | x8 | x8 | x8 | x8 | x8 | %57
 x8 | x8 | x8 | x8 | x8 | x8 | x8 | x8 | x8 | x8 | x8 | x8 | x8 | x8 | x8 | x8 | x8 | x8 | x8 | %76
 x8 | x8 | x8 | x8 | x8 | x8 | x8 | x8 | x8 |1 x8 | x8 :|2 x8 | x8 || x6[K:bass] x2 | x8 | x8 | %92
 x8 | x8 |[K:treble] x8 | x8 | x8 | x8 | x8 | x8 | x8 | x8 | x8 | x8 | x8 | x8 | x8 | x8 | x8 | %109
 x8 | x8 | x8 | x8 | x8 | x8 | x8 | x8 | x8 | x8 | x8 | x8 | x8 | x8 | x8 | x8 | x8 | x8 | x8 | %128
 x8 | x8 | x8 | x8 | x8 | x8 | x8 | x8 | x8 | x8 | x8 | x8 | x8 | x8 | x8 | x8 | x8 | x8 | x8 | %147
 x8 | x8 | x8 | x8 | x8 | x8 | x8 | x8 | x8 | x8 | x8 | x8 | x8 | x8 | x8 | x8 | x8 | x8 | x8 | %166
 x8 | x8 | x8 | x8 | x8 | x8 | x8 | x8 | x8 | x8 | x8 | x8 | x8 | x8 | x8 | x8 | x8 | x8 | x8 | %185
 x8 | x8 | x8 | x8 | x8 | x8 | x8 | x8 | x8 | x8 | x8 | x8 | x8 | x8 | x8 | ^c4 B4 | x8 | x8 | x8 | %204
 x8 | x8 | x8 | x8 | x8 | x8 | x8 | x8 | x8 | x8 | x8 | x8 | x8 | x8 | x8 | x8 | x8 | x8 | x8 | %223
 x8 | x8 | x8 | x8 | x8 | x8 | x8 | x8 | x8 | x8 | x8 | x8 | x8 | x8 | x8 | x8 | x8 | x8 | x8 | %242
 x8 | x8 | x8 | x8 | x8 | x8 | x8 | x8 | x8 | x8 | x8 | x8 | x8 | x8 | x8 | x8 | x8 | x8 | x8 | %261
 x8 | x8 | x8 | x8 | x8 | x8 | x8 | x8 | x8 | x8 | x8 | x8 | x8 | x8 | x8 | x8 | x8 | x8 | x8 | %280
 x8 | x8 | x8 | x8 | x8 | x8 | x8 | x8 | x8 | x8 | x8 | x8 | x8 | x8 | x8 | x8 | x8 | x8 | x8 | %299
 x8 | x8 | x8 | x8 | x8 |] %304

